html/assets/images/dynamic/icon4.svg

<svg width="80" height="96" viewBox="0 0 80 96" fill="none" xmlns="http://www.w3.org/2000/svg">
<g id="Group">
<path id="Vector" d="M26.9905 71.9654L20.0454 69.314C16.9389 64.3674 12.9222 58.8073 5.20544 63.378L9.65742 73.5879L17.4731 82.0367C17.4731 82.0367 27.6632 89.0808 28.9295 89.0808H58.0553L62.1116 93.0381" stroke="#00999A" stroke-width="4" stroke-linecap="round" stroke-linejoin="round"/>
<path id="Vector_2" d="M50.7144 77.2285H32.9065C24.9919 77.2285 24.9919 67.3352 32.9065 67.3352H44.7785C46.4208 67.3352 49.5273 63.3779 52.1391 63.3779H62.0324C64.7035 63.3779 68.0277 65.5545 69.947 67.3352C72.915 70.3032 78.0001 75.1113 78.0001 75.1113" stroke="#00999A" stroke-width="4" stroke-linecap="round" stroke-linejoin="round"/>
<path id="Vector_3" d="M40.5835 36.4286C41.1771 33.7376 41.652 32.1547 41.652 32.1547L36.0326 25.6251L28.2169 22.855L26.2779 23.4288L19.5702 27.208C19.5702 27.208 19.2932 30.2749 20.4013 31.6402C23.2901 35.2216 29.602 35.8745 31.4422 37.6157C33.5989 39.6735 35.1422 43.057 35.0829 45.3523C35.0235 47.6475 31.4421 48.1818 29.3646 47.2518C28.1378 46.7176 17.7499 43.2351 11.1609 40.9399C7.44107 39.6538 4.23564 37.2002 1.99976 33.9354" stroke="#00999A" stroke-width="4" stroke-linecap="round" stroke-linejoin="round"/>
<path id="Vector_4" d="M8.46899 2C8.46899 2 25.1292 6.39261 37.2584 9.75632C40.0087 10.5082 42.4029 12.2099 44.0254 14.5645L53.3449 29.7605L48.0619 45.2534" stroke="#00999A" stroke-width="4" stroke-linecap="round" stroke-linejoin="round"/>
<path id="Vector_5" d="M30.7291 37.1212C32.4109 36.211 34.35 35.6768 36.4078 35.6768C42.9572 35.6768 48.2798 40.9993 48.2798 47.5487C48.2798 54.098 42.9572 59.4206 36.4078 59.4206C29.8585 59.4206 24.5359 54.098 24.5359 47.5487C24.5359 46.8957 24.5953 46.2428 24.6942 45.6096" stroke="#00999A" stroke-width="4" stroke-linecap="round" stroke-linejoin="round"/>
</g>
</svg>

<svg width="80" height="96" fill="none" xmlns="http://www.w3.org/2000/svg"><g stroke="#00999A" stroke-width="4" stroke-linecap="round" stroke-linejoin="round"><path d="M26.99 71.965l-6.945-2.651c-3.106-4.947-7.123-10.507-14.84-5.936l4.452 10.21 7.816 8.449s10.19 7.044 11.457 7.044h29.125l4.057 3.957"/><path d="M50.714 77.228H32.907c-7.915 0-7.915-9.893 0-9.893h11.872c1.642 0 4.748-3.957 7.36-3.957h9.893c2.672 0 5.996 2.177 7.915 3.957C72.915 70.303 78 75.111 78 75.111M40.584 36.429c.593-2.691 1.068-4.274 1.068-4.274l-5.62-6.53-7.815-2.77-1.94.574-6.707 3.779s-.277 3.067.831 4.432c2.89 3.582 9.201 4.234 11.041 5.976 2.157 2.057 3.7 5.441 3.64 7.736-.059 2.296-3.64 2.83-5.717 1.9-1.227-.534-11.615-4.017-18.204-6.312A18.388 18.388 0 012 33.935"/><path d="M8.469 2s16.66 4.393 28.79 7.756a12.089 12.089 0 016.766 4.809l9.32 15.196-5.283 15.492"/><path d="M30.73 37.121a11.92 11.92 0 015.678-1.444c6.55 0 11.872 5.322 11.872 11.872 0 6.549-5.323 11.872-11.872 11.872-6.55 0-11.872-5.323-11.872-11.872 0-.653.06-1.306.158-1.94"/></g></svg>
